packages/icons/src/instagram-logo.svg

<svg width="15" height="15" viewBox="0 0 15 15" fill="none" xmlns="http://www.w3.org/2000/svg">
  <path
    d="M4.84293 1.5386C5.5247 1.50748 5.7372 1.5 7.50006 1.5C9.26294 1.5 9.47534 1.50748 10.1571 1.53872L10.1572 1.53873C10.8016 1.56802 11.2198 1.66861 11.5768 1.80722L11.5768 1.80724L11.5817 1.80908C11.9473 1.94671 12.2786 2.16246 12.5523 2.44128L12.5523 2.44134L12.5588 2.44777C12.8376 2.72149 13.0533 3.05273 13.1909 3.41838L13.1909 3.41839L13.1928 3.42341C13.3315 3.78023 13.4321 4.19841 13.4615 4.84288C13.4926 5.52465 13.5001 5.73717 13.5001 7.50001C13.5001 9.26285 13.4926 9.47528 13.4615 10.1572C13.4321 10.8016 13.3315 11.2198 13.1928 11.5766L13.1925 11.5774C13.0506 11.9442 12.8337 12.2774 12.5556 12.5555C12.2775 12.8336 11.9443 13.0505 11.5775 13.1924L11.5767 13.1927C11.2199 13.3314 10.8017 13.432 10.1572 13.4614C9.47548 13.4925 9.26296 13.5 7.50012 13.5C5.73728 13.5 5.52485 13.4925 4.84298 13.4614C4.19854 13.432 3.78036 13.3314 3.42351 13.1927L3.42352 13.1927L3.41848 13.1908C3.05283 13.0532 2.7216 12.8375 2.44787 12.5587L2.44793 12.5587L2.44142 12.5523C2.16265 12.2785 1.94695 11.9473 1.80935 11.5816L1.80937 11.5816L1.80742 11.5766C1.66874 11.2198 1.56814 10.8016 1.53872 10.1571L1.53872 10.1571C1.50748 9.47534 1.5 9.26289 1.5 7.50001C1.5 5.73714 1.50748 5.52469 1.53872 4.84297L1.53873 4.84279C1.56802 4.19838 1.66861 3.78018 1.80722 3.42325L1.80724 3.42326L1.80907 3.4184C1.94672 3.05274 2.16248 2.7215 2.44131 2.44779L2.44137 2.44785L2.44782 2.44129C2.72154 2.16252 3.05278 1.94682 3.41843 1.80922L3.41844 1.80924L3.42346 1.80729C3.78028 1.66861 4.19845 1.56801 4.84293 1.5386ZM4.84293 1.5386L4.82014 1.03912M4.84293 1.5386L4.82014 1.03912M4.82014 1.03912C4.12826 1.0707 3.65578 1.18056 3.24233 1.34125L1.03924 10.1799C1.07083 10.8718 1.18069 11.3443 1.34138 11.7577C1.5046 12.1915 1.76045 12.5843 2.09111 12.909C2.41578 13.2397 2.80867 13.4955 3.24238 13.6587C3.65586 13.8194 4.12834 13.9293 4.82019 13.9609C5.51348 13.9925 5.73483 14 7.50012 14C9.2654 14 9.48685 13.9925 10.18 13.9609C10.8719 13.9293 11.3444 13.8194 11.7578 13.6587C12.1896 13.4917 12.5818 13.2364 12.9091 12.909C13.2365 12.5817 13.4918 12.1895 13.6588 11.7577C13.8195 11.3443 13.9294 10.8718 13.961 10.1799C13.9926 9.48665 14.0001 9.26529 14.0001 7.50001C14.0001 5.73473 13.9926 5.51328 13.961 4.82008C13.9294 4.12821 13.8195 3.65573 13.6588 3.24228C13.4956 2.80857 13.2398 2.41567 12.9091 2.091C12.5844 1.76028 12.1915 1.50437 11.7578 1.34113C11.3443 1.18056 10.8718 1.0707 10.1799 1.03924C9.48675 1.00748 9.26537 1 7.50006 1C5.73476 1 5.51333 1.00748 4.82014 1.03912Z"
    stroke="currentColor"
  />
  <circle cx="7.5" cy="7.5" r="2.75" stroke="currentColor" />
  <circle cx="10.97" cy="4.03" r=".75" fill="currentColor" />
</svg>

<svg xmlns="http://www.w3.org/2000/svg" width="15" height="15" fill="none"><path stroke="currentColor" d="M4.843 1.539c.682-.032.894-.039 2.657-.039s1.975.007 2.657.039c.645.029 1.063.13 1.42.268l.005.002c.365.138.697.353.97.632l.007.007c.279.273.494.605.632.97l.002.005c.139.357.24.775.268 1.42.032.682.04.894.04 2.657s-.008 1.975-.04 2.657c-.029.645-.13 1.063-.268 1.42a2.82 2.82 0 0 1-1.615 1.615h-.001c-.357.14-.775.24-1.42.27-.682.03-.894.038-2.657.038s-1.975-.008-2.657-.039c-.644-.029-1.063-.13-1.42-.268l-.005-.002a2.7 2.7 0 0 1-.97-.632l-.007-.007a2.7 2.7 0 0 1-.632-.97l-.002-.005c-.138-.357-.239-.775-.268-1.42C1.507 9.475 1.5 9.263 1.5 7.5s.007-1.975.039-2.657c.029-.645.13-1.063.268-1.42l.002-.005c.138-.365.353-.697.632-.97l.007-.007c.274-.278.605-.494.97-.632l.005-.002c.357-.138.775-.239 1.42-.268Zm0 0-.023-.5m.023.5-.023-.5m0 0c-.692.032-1.164.142-1.578.302L1.04 10.18c.032.692.142 1.164.302 1.578.164.434.42.826.75 1.151.325.33.718.586 1.151.75.414.16.886.27 1.578.302S5.735 14 7.5 14s1.987-.008 2.68-.04c.692-.03 1.164-.14 1.578-.301a3.32 3.32 0 0 0 1.9-1.901c.162-.414.271-.886.303-1.578s.04-.915.04-2.68-.008-1.987-.04-2.68c-.032-.692-.142-1.164-.302-1.578a3.2 3.2 0 0 0-.75-1.151 3.2 3.2 0 0 0-1.151-.75c-.414-.16-.886-.27-1.578-.302S9.265 1 7.5 1s-1.987.007-2.68.04Z"/><circle cx="7.5" cy="7.5" r="2.75" stroke="currentColor"/><circle cx="10.97" cy="4.03" r=".75" fill="currentColor"/></svg>
